icons/qsharp.svg

<!--
  - The MIT License (MIT)
  -
  - Copyright (c) 2015-2024 Elior "Mallowigi" Boukhobza
  -
  - Permission is hereby granted, free of charge, to any person obtaining a copy
  - of this software and associated documentation files (the "Software"), to deal
  - in the Software without restriction, including without limitation the rights
  - to use, copy, modify, merge, publish, distribute, sublicense, and/or sell
  - copies of the Software, and to permit persons to whom the Software is
  - furnished to do so, subject to the following conditions:
  -
  - The above copyright notice and this permission notice shall be included in all
  - copies or substantial portions of the Software.
  -
  - THE SOFTWARE IS PROVIDED "AS IS", WITHOUT WARRANTY OF ANY KIND, EXPRESS OR
  - IMPLIED, INCLUDING BUT NOT LIMITED TO THE WARRANTIES OF MERCHANTABILITY,
  - FITNESS FOR A PARTICULAR PURPOSE AND NONINFRINGEMENT. IN NO EVENT SHALL THE
  - AUTHORS OR COPYRIGHT HOLDERS BE LIABLE FOR ANY CLAIM, DAMAGES OR OTHER
  - LIABILITY, WHETHER IN AN ACTION OF CONTRACT, TORT OR OTHERWISE, ARISING FROM,
  - OUT OF OR IN CONNECTION WITH THE SOFTWARE OR THE USE OR OTHER DEALINGS IN THE
  - SOFTWARE.
  -
  -->
<svg  clip-rule="evenodd" fill-rule="evenodd" stroke-linejoin="round" stroke-miterlimit="1.414"
     viewBox="0 0 500 500"
     version="1.1" xmlns="http://www.w3.org/2000/svg" width="16px" height="16px">
  <path fill="#607d8b" data-iconColor="Q#"
        d="M 249.8125 25.001953 C 248.17849 25.019003 246.54467 25.154145 244.91211 25.404297 C 243.27949 25.654429 241.64763 26.019086 240.01758 26.5 C 238.38754 26.98093 236.75918 27.577673 235.13281 28.287109 C 233.50647 28.996568 231.88321 29.82013 230.26172 30.755859 C 176.83821 61.576447 123.4313 92.433297 70.007812 123.25391 C 68.409003 124.17697 66.904037 125.15729 65.494141 126.19531 C 64.08424 127.23335 62.769668 128.32982 61.550781 129.48242 C 60.331897 130.63504 59.209364 131.8445 58.183594 133.11133 C 57.157825 134.37817 56.228993 135.70136 55.398438 137.08203 C 54.543629 138.502 53.790868 139.98292 53.144531 141.52344 C 52.498199 143.06395 51.958168 144.66477 51.523438 146.32617 C 51.088712 147.98757 50.759063 149.70955 50.539062 151.49219 C 50.31907 153.27483 50.207214 155.11923 50.205078 157.02344 C 50.179998 175.27421 50.272738 214.94322 50.341797 253.11914 C 50.410867 291.29504 50.456322 327.98036 50.339844 340.26758 C 50.320274 342.33348 50.409534 344.33258 50.605469 346.26367 C 50.801399 348.19476 51.104966 350.05943 51.519531 351.85742 C 51.934101 353.65542 52.459363 355.38619 53.095703 357.05273 C 53.732044 358.71932 54.478594 360.32055 55.339844 361.85742 C 56.201091 363.3943 57.176332 364.86853 58.265625 366.27734 C 59.354919 367.68622 60.558436 369.02995 61.878906 370.3125 C 63.199382 371.59502 64.636621 372.81477 66.191406 373.97266 C 67.746198 375.13055 69.420648 376.22677 71.212891 377.26172 C 124.38735 407.95977 177.48876 438.78477 230.64648 469.51953 C 232.29632 470.47 233.9497 471.29532 235.60352 471.99609 C 237.25727 472.69689 238.91218 473.27236 240.56836 473.72656 C 242.22456 474.18077 243.8821 474.5139 245.53906 474.72461 C 247.19603 474.93532 248.85365 475.02386 250.50977 474.99414 C 252.12048 474.96394 253.72998 474.82169 255.33984 474.56641 C 256.94975 474.3111 258.56027 473.94404 260.16797 473.46484 C 261.77565 472.98568 263.38222 472.39324 264.98633 471.69141 C 266.59043 470.98955 268.19183 470.17718 269.79102 469.25391 C 269.79102 469.25391 376.59161 407.59289 429.99609 376.73633 C 431.6304 375.79184 433.16825 374.78665 434.60547 373.72266 C 436.0427 372.65862 437.3795 371.53514 438.61719 370.35156 C 439.85488 369.16802 440.99359 367.92418 442.0293 366.62109 C 443.06496 365.31806 443.9989 363.95579 444.83008 362.5332 C 445.64853 361.13471 446.3678 359.67833 446.98633 358.16406 C 447.60485 356.64985 448.12318 355.0772 448.53906 353.44727 C 448.95493 351.81726 449.26801 350.12854 449.47852 348.38281 C 449.68899 346.63707 449.7964 344.83412 449.79883 342.97266 C 449.76453 281.57608 449.62365 220.17662 449.625 158.7793 C 449.62497 156.71028 449.51044 154.71591 449.28516 152.79102 C 449.05981 150.86609 448.72196 149.01096 448.27148 147.22656 C 447.82104 145.44218 447.25944 143.72748 446.58398 142.08008 C 445.9086 140.43268 445.12095 138.85186 444.2207 137.33789 C 443.32046 135.82395 442.30657 134.37622 441.18164 132.99219 C 440.05672 131.60811 438.82014 130.28894 437.4707 129.03125 C 436.12127 127.77356 434.65974 126.57825 433.08594 125.44336 C 431.51215 124.30849 429.82532 123.23436 428.02734 122.21875 C 417.32907 116.17259 385.58239 97.791261 352.55664 78.646484 C 319.5309 59.501718 285.22401 39.59127 269.40625 30.488281 C 267.77794 29.550906 266.14706 28.734446 264.51562 28.039062 C 262.88425 27.343668 261.2506 26.768144 259.61719 26.3125 C 257.98377 25.856857 256.35105 25.520869 254.7168 25.302734 C 253.08251 25.084603 251.4465 24.984827 249.8125 25.001953 z M 250 100 A 150 150 0 0 1 400 250 A 150 150 0 0 1 394.40039 290.06641 L 428.96484 310.02344 L 391.46484 374.97656 L 356.69141 354.90039 A 150 150 0 0 1 250 400 A 150 150 0 0 1 100 250 A 150 150 0 0 1 250 100 z M 250 175 A 75 75 0 0 0 175 250 A 75 75 0 0 0 250 325 A 75 75 0 0 0 325 250 A 75 75 0 0 0 250 175 z M 232.19531 214.39258 L 241.09766 214.39258 L 241.09766 232.19727 L 258.90039 232.19727 L 258.90039 214.39258 L 267.80273 214.39258 L 267.80273 232.19727 L 285.60742 232.19727 L 285.60742 241.09961 L 267.80273 241.09961 L 267.80273 258.90039 L 285.60742 258.90039 L 285.60742 267.80273 L 267.80273 267.80273 L 267.80273 285.60742 L 258.90039 285.60742 L 258.90039 267.80273 L 241.09766 267.80273 L 241.09766 285.60742 L 232.19531 285.60742 L 232.19531 267.80273 L 214.39258 267.80273 L 214.39258 258.90039 L 232.19531 258.90039 L 232.19531 241.09961 L 214.39258 241.09961 L 214.39258 232.19727 L 232.19531 232.19727 L 232.19531 214.39258 z M 241.09766 241.09766 L 241.09766 258.90039 L 258.90039 258.90039 L 258.90039 241.09766 L 241.09766 241.09766 z "/>
</svg>

<svg xmlns="http://www.w3.org/2000/svg" fill-rule="evenodd" stroke-linejoin="round" stroke-miterlimit="1.414" clip-rule="evenodd" viewBox="0 0 500 500"><path fill="#607d8b" d="M249.813 25.002a35 35 0 0 0-4.9.402q-2.45.375-4.895 1.096a42 42 0 0 0-4.885 1.787 49 49 0 0 0-4.871 2.469c-53.424 30.82-106.83 61.677-160.254 92.498a49 49 0 0 0-4.514 2.941 42 42 0 0 0-3.943 3.287 37 37 0 0 0-3.367 3.63 35 35 0 0 0-2.786 3.97 34.4 34.4 0 0 0-2.253 4.441 36 36 0 0 0-1.622 4.803 39.5 39.5 0 0 0-.984 5.166 46 46 0 0 0-.334 5.531c-.025 18.251.068 57.92.137 96.096s.114 74.861-.002 87.149q-.029 3.099.265 5.996.293 2.896.915 5.593.621 2.697 1.576 5.196a36 36 0 0 0 5.17 9.225 38 38 0 0 0 3.613 4.034 43 43 0 0 0 4.312 3.66 52 52 0 0 0 5.022 3.29c53.174 30.698 106.276 61.523 159.433 92.258q2.476 1.425 4.958 2.476 2.48 1.05 4.964 1.73a36 36 0 0 0 4.971.999 34.5 34.5 0 0 0 9.8-.159q2.416-.383 4.829-1.101a42 42 0 0 0 4.818-1.774 49 49 0 0 0 4.805-2.437s106.8-61.661 160.205-92.518a49 49 0 0 0 4.61-3.013 42 42 0 0 0 4.011-3.371 37 37 0 0 0 3.412-3.73 34.7 34.7 0 0 0 4.957-8.458 36 36 0 0 0 1.553-4.717q.624-2.445.94-5.064t.32-5.41c-.034-61.397-.175-122.796-.174-184.194q-.001-3.102-.34-5.988a43 43 0 0 0-1.014-5.564 38 38 0 0 0-1.687-5.147 36 36 0 0 0-5.402-9.088 39 39 0 0 0-3.711-3.96 45 45 0 0 0-4.385-3.589 54 54 0 0 0-5.059-3.224c-10.698-6.046-42.445-24.428-75.47-43.573-33.026-19.144-67.333-39.055-83.15-48.158a46 46 0 0 0-4.891-2.449 40 40 0 0 0-4.899-1.727 36 36 0 0 0-4.9-1.01 34 34 0 0 0-4.905-.3M250 100a150 150 0 0 1 150 150 150 150 0 0 1-5.6 40.066l34.565 19.957-37.5 64.954L356.69 354.9A150 150 0 0 1 250 400a150 150 0 0 1-150-150 150 150 0 0 1 150-150m0 75a75 75 0 0 0-75 75 75 75 0 0 0 75 75 75 75 0 0 0 75-75 75 75 0 0 0-75-75m-17.805 39.393h8.903v17.804H258.9v-17.804h8.903v17.804h17.804v8.903h-17.804v17.8h17.804v8.903h-17.804v17.804H258.9v-17.804h-17.802v17.804h-8.903v-17.804h-17.802V258.9h17.802v-17.8h-17.802v-8.903h17.802zm8.903 26.705V258.9H258.9v-17.802z" data-iconColor="Q#"/></svg>
